X: 1
T: Jackie Donnan's
M: 3/4
L: 1/8
R: mazurka
K: Dmaj
|: A>F D2 D2 | F>A d2 d2 | c>d e2 e>d | c>d E3 G |
(3GFE D2 D2 | F>A d2 d2 | c>d e2 e>f | g>e d4 :|
|: a>f d2 d>e | f>g B2 B2 | A>c e2 e>f | g>e a3 f |
a>f d2 d>e | f>g B2 B2 | A>c e2 e>f | g>e d4 :|
